X:695
T:March by Michael Dobney
A:Wyresdale, Lancashire
B:E and J Winder, 1835-41
L:1/8
M:C|
O:England
Z:Richard Robinson 
%%TUNEURL: http://www.leeds.ac.uk/music/Info/RRTuneBk/gettune/00001047.html
%%ID:00001047
K:F
(cd/e/) |\
f2f>f f3(e/f/) | g2g>g g3a/b/ | a>af>f g>ge>e | f2f>f f2 A>A |
c3A   dcBA     | B2G>G G2G>A  | B3G    cBAG   | A2F>F F2 c2  | \
d2(b>a) (ag)(gf) | f2e>e e2 ::
e>f |\
g2g>g  g3f/g/ | a2f>f   f2 G>A | B2G2   G3F    | G2 G>G G2 a>b |
c'>c'fa>a b>bg>g | a>af>f  g2 A>B | c>cA>A B>BG>G | A>AF>F G2 a>b | \
a>ga>b a2g2 | f2f>f f3 ::
